X:1
T:Title
%%score { ( 1 2 ) | ( 3 4 ) }
L:1/8
M:4/4
K:Db
V:1 treble nm="Grand Piano"
V:2 treble 
V:3 bass 
V:4 bass 
V:1
 z4 z2[Q:1/4=108] z E | F2 F2 G2 AG | F6 F2 | [EF]2 [EF]2 [EG]2 [EF]2 |[M:3/4] [DB]6 | %5
[M:1/4] [DB]2 |[M:4/4] [GB]2 [GB][Ac] [Bd]2 [Ac][GB] | [FA]2 [Fd]2 [FA]2 [_FB]2 | c2 Bc d2 =G2 | %9
[M:3/4] [CEA]6 |[M:1/4] [CGA]2 |[M:4/4] .[DFd]2 [Fd]2 [Gd]2 c[CB] | [FA]6 [FA]2 | %13
 [GB]2 [GB]2 [=Ge]2 [Gd]2 |[M:3/4] c6 |[M:1/4] BA |[M:4/4] .[DFd]2 [Fd]2 [Gd]2 cB | %17
[M:9/8] .[DFA]2 [_FB]- [FB] [=FA]2 [_Fd]3 | %18
[M:4/4] [Fd][DA]D-[DE] [A,DF]2[K:bass] [G,CE]2[Q:1/4=105][Q:1/4=101][Q:1/4=98][Q:1/4=95][Q:1/4=91][Q:1/4=88][Q:1/4=84] | %19
[M:3/4] [F,D]6 |] %20
V:2
 z4 z2 D2 | x8 | x8 | x8 |[M:3/4] x6 |[M:1/4] x2 |[M:4/4] x8 | x8 | x8 |[M:3/4] x6 |[M:1/4] x2 | %11
[M:4/4] z4 z2 G2 | x8 | x8 |[M:3/4] x6 |[M:1/4] x2 |[M:4/4] z4 z2 G2 |[M:9/8] x9 | %18
[M:4/4] z2 .B,2 z4[K:bass] |[M:3/4] x6 |] %20
V:3
 z4 z2 F,G, | [D,A,D]2 [D,=A,D]2 [D,B,D]2 _CB, | [D,A,D]6 [D,A,D]2 | %3
 [C,A,]2 [C,A,]2 [C,A,]2 [C,A,]2 |[M:3/4] [B,,B,]6 |[M:1/4] [B,,B,]2 | %6
[M:4/4] [G,D]2 [G,D]2 [G,D]2 [G,D]2 | [D,D]2 [D,A,]2 [D,D]2 [D,D]2 | %8
 [E,A,E]2 [E,E]-[E,A,E] [E,B,E]2 [E,DE]2 |[M:3/4] A,,6 |[M:1/4] A,2 | %11
[M:4/4] z A, [D,=A,]2 [D,B,]2 .[D,B,]2 | [D,D]6 [D,D]2 | [G,D]2 [G,D]2 [E,D]2 [E,E]2 | %14
[M:3/4][K:treble] [A,EA]6 |[M:1/4] [A,CG]2 |[M:4/4][K:bass] z A, [D,=A,]2 [D,B,]2 B,C | %17
[M:9/8] z A,[D,G,]- [D,G,] [D,A,]2 [=A,,=G,]3 |[M:4/4] A,2 G,,2 z4 |[M:3/4] D,6 |] %20
V:4
 z4 z2 D,2 | z4 z2 [D,D]2 | x8 | x8 |[M:3/4] x6 |[M:1/4] x2 |[M:4/4] x8 | x8 | z2 .=G,2 z4 | %9
[M:3/4] x6 |[M:1/4] x2 |[M:4/4] D,2 z2 z4 | x8 | x8 |[M:3/4][K:treble] x6 |[M:1/4] x2 | %16
[M:4/4][K:bass] D,2 z2 z2 D,2 |[M:9/8] .D,3 z3 z3 |[M:4/4] A,,F,, z =A, A,,2 A,,2 |[M:3/4] x6 |] %20

